X: 27868
T: Mount Agung's, The
R: jig
M: 6/8
K: Dmajor
|:A|DDD F2G|A2d cAF|GGG FFF|DDD FGA|
DDD F2G|A2d cAF|GGG AGF|FGA D2:|
A|dcA dcA|dfg fdc|AcA GGG|FFD FGA|
dcA dcA|dfg aag|fgf dcA|GFD D2A|
dcA dcA|dfg fdc|AcA GGG|FFD FGA|
dcA dcA|dfg aag|fgf dcA|GAc d2|

